X:210
T:Martin Wynn's #1
T:Martin Wynne's
R:reel
C:Martin Wynne (1914-98)
D:Bothy Band: Out of the Wind, Into the Sun
Z:id:hn-reel-210
M:C|
K:D
AF~F2 GE~E2|DFAF EFDB,|A,B,DE ~F3B|ABde fedB|
AF~F2 GE~E2|DFAF EFDB,|A,B,DE ~F3B|1 ABde fddB:|2 ABde fede||
|:f2af gfeg|fedf edBc|dBAF DEFB|ABde fede|
f2af gfeg|fedf edBc|dBAF DEFB|1 ABde fdde:|2 ABde fedB||
